Arcticons/scalable/apps/scanbot.svg

<svg id="Layer_2" data-name="Layer 2" viewBox="0 0 48 48" xmlns="http://www.w3.org/2000/svg">
 <defs>
  <style>.cls-1{fill:none;stroke:#fff;stroke-linecap:round;stroke-linejoin:round;}</style>
 </defs>
 <path class="cls-1" d="M18.15,4.5H10.4a2,2,0,0,0-2,2v7.75"/>
 <path class="cls-1" d="m8.4 33.75v7.75a2 2 0 0 0 2 2h7.75"/>
 <path class="cls-1" d="M39.6,14.25V6.5a2,2,0,0,0-2-2H29.85"/>
 <path class="cls-1" d="m29.85 43.5h7.75a2 2 0 0 0 2-2v-7.75"/>
 <path class="cls-1" d="m33.39 9.38h-18.77a1.41 1.41 0 0 0-1.35 1.46v26.32a1.4 1.4 0 0 0 1.35 1.46h18.77a1.41 1.41 0 0 0 1.34-1.46v-26.32a1.41 1.41 0 0 0-1.34-1.46z"/>
 <line class="cls-1" x1="16.03" x2="28.28" y1="16.08" y2="16.08"/>
 <line class="cls-1" x1="16.03" x2="31.97" y1="21.36" y2="21.36"/>
 <line class="cls-1" x1="16.03" x2="30.68" y1="26.64" y2="26.64"/>
 <line class="cls-1" x1="16.03" x2="25.53" y1="31.91" y2="31.91"/>
</svg>

<svg id="Layer_2" data-name="Layer 2" xmlns="http://www.w3.org/2000/svg" viewBox="0 0 48 48"><defs><style>.cls-1{fill:none;stroke:#fff;stroke-linecap:round;stroke-linejoin:round;}</style></defs><path class="cls-1" d="M18.15,4.5H10.4a2,2,0,0,0-2,2v7.75"/><path class="cls-1" d="M8.4,33.75V41.5a2,2,0,0,0,2,2h7.75"/><path class="cls-1" d="M39.6,14.25V6.5a2,2,0,0,0-2-2H29.85"/><path class="cls-1" d="M29.85,43.5H37.6a2,2,0,0,0,2-2V33.75"/><path class="cls-1" d="M33.39,9.38H14.62a1.41,1.41,0,0,0-1.35,1.46h0V37.16a1.4,1.4,0,0,0,1.35,1.46H33.39a1.41,1.41,0,0,0,1.34-1.46V10.84A1.41,1.41,0,0,0,33.39,9.38Z"/><line class="cls-1" x1="16.03" y1="16.08" x2="28.28" y2="16.08"/><line class="cls-1" x1="16.03" y1="21.36" x2="31.97" y2="21.36"/><line class="cls-1" x1="16.03" y1="26.64" x2="30.68" y2="26.64"/><line class="cls-1" x1="16.03" y1="31.91" x2="25.53" y2="31.91"/></svg>
